dist/icons/viber.svg

<svg width="20" height="20" viewBox="0 0 20 20" fill="none" xmlns="http://www.w3.org/2000/svg">
<path d="M16.075 8.42233C16.095 6.01233 14.0425 3.80316 11.5 3.49733C11.4451 3.49048 11.3903 3.48214 11.3358 3.47233C11.208 3.44786 11.0784 3.43393 10.9483 3.43066C10.4267 3.43066 10.2875 3.79733 10.2508 4.01483C10.215 4.22733 10.2492 4.4065 10.3517 4.54566C10.5242 4.77983 10.8283 4.8215 11.0725 4.85483C11.1433 4.86483 11.2108 4.874 11.2675 4.8865C13.5525 5.39733 14.3217 6.19983 14.6975 8.46566C14.7067 8.52066 14.7108 8.589 14.7158 8.6615C14.7325 8.93233 14.7658 9.49566 15.3717 9.49566C15.4217 9.49566 15.4767 9.4915 15.5333 9.48316C16.0967 9.39733 16.0792 8.88233 16.0708 8.63483C16.0683 8.56483 16.0658 8.499 16.0725 8.45483C16.0738 8.44377 16.0744 8.43263 16.0742 8.4215L16.075 8.42233Z" fill="black" fill-opacity="0.5"/>
<path d="M10.7999 2.61333C10.8683 2.61833 10.9316 2.62333 10.9849 2.63083C14.7374 3.20833 16.4633 4.98583 16.9408 8.7675C16.9491 8.83167 16.9508 8.91 16.9516 8.9925C16.9566 9.28833 16.9666 9.90333 17.6266 9.91583H17.6466C17.8541 9.91583 18.0183 9.85333 18.1366 9.73C18.3416 9.51583 18.3283 9.19667 18.3158 8.94C18.3133 8.87667 18.3108 8.8175 18.3108 8.765C18.3591 4.89833 15.0108 1.39083 11.1474 1.26083C11.1308 1.26083 11.1158 1.26083 11.1008 1.26333C11.0856 1.26525 11.0702 1.26609 11.0549 1.26583C11.0158 1.26583 10.9691 1.2625 10.9183 1.25917C10.8583 1.255 10.7891 1.25 10.7183 1.25C10.1033 1.25 9.98659 1.6875 9.97159 1.94833C9.93743 2.55083 10.5199 2.59333 10.7999 2.61333ZM16.7599 13.655C16.6794 13.5938 16.5997 13.5316 16.5208 13.4683C16.1108 13.1383 15.6749 12.835 15.2541 12.5408L14.9916 12.3575C14.4516 11.9783 13.9666 11.7942 13.5083 11.7942C12.8899 11.7942 12.3516 12.1358 11.9066 12.8083C11.7099 13.1067 11.4708 13.2517 11.1766 13.2517C10.9723 13.2445 10.7718 13.1943 10.5883 13.1042C8.84659 12.3142 7.60159 11.1025 6.88993 9.50333C6.54576 8.73 6.65743 8.225 7.26243 7.81333C7.60659 7.58 8.24576 7.14583 8.20159 6.31333C8.14993 5.36917 6.06576 2.52667 5.18743 2.20417C4.81194 2.0672 4.40036 2.06602 4.02409 2.20083C3.01493 2.54 2.29159 3.13667 1.92909 3.92417C1.57909 4.68583 1.59576 5.58 1.97409 6.51C3.06993 9.19917 4.60993 11.5442 6.55243 13.4792C8.45326 15.3733 10.7899 16.9242 13.4966 18.09C13.7408 18.195 13.9966 18.2525 14.1841 18.2942C14.2474 18.3083 14.3024 18.3208 14.3424 18.3317C14.3644 18.3376 14.3871 18.3407 14.4099 18.3408H14.4316C15.7049 18.3408 17.2341 17.1775 17.7033 15.8517C18.1149 14.69 17.3633 14.1158 16.7599 13.655ZM11.3633 5.68583C11.1458 5.69083 10.6916 5.7025 10.5324 6.16417C10.4574 6.38083 10.4666 6.5675 10.5591 6.72167C10.6941 6.94667 10.9533 7.01667 11.1883 7.055C12.0424 7.19167 12.4816 7.66333 12.5691 8.54083C12.6099 8.94917 12.8858 9.235 13.2383 9.235C13.265 9.23496 13.2917 9.23329 13.3183 9.23C13.7433 9.18 13.9491 8.8675 13.9308 8.30167C13.9374 7.71167 13.6291 7.04167 13.1033 6.50833C12.5766 5.97333 11.9416 5.67167 11.3633 5.68583Z" fill="black" fill-opacity="0.5"/>
</svg>

<svg width="20" height="20" fill="none" xmlns="http://www.w3.org/2000/svg"><path d="M16.075 8.422c.02-2.41-2.032-4.619-4.575-4.925a3.08 3.08 0 01-.164-.025 2.378 2.378 0 00-.388-.041c-.521 0-.66.366-.697.584-.036.212-.002.392.1.53.173.235.477.277.721.31.071.01.139.019.196.031 2.284.511 3.054 1.314 3.43 3.58.009.055.013.123.018.196.017.27.05.834.656.834.05 0 .105-.005.161-.013.564-.086.546-.6.538-.848a1.04 1.04 0 01.002-.18.248.248 0 00.001-.034l.001.001z" fill="#000" fill-opacity=".5"/><path d="M10.8 2.613c.068.005.132.01.185.018 3.752.577 5.478 2.355 5.956 6.137a1.9 1.9 0 01.01.224c.006.296.016.911.676.924h.02c.207 0 .371-.063.49-.186.205-.214.191-.533.179-.79a3.76 3.76 0 01-.005-.175c.048-3.867-3.3-7.374-7.164-7.504-.016 0-.031 0-.046.002a.323.323 0 01-.046.003c-.04 0-.086-.004-.137-.007-.06-.004-.129-.009-.2-.009-.615 0-.731.438-.746.698-.035.603.548.645.828.665zm5.96 11.042a11.62 11.62 0 01-.24-.187c-.41-.33-.845-.633-1.266-.927l-.262-.184c-.54-.379-1.025-.563-1.484-.563-.618 0-1.156.342-1.601 1.014-.197.299-.436.444-.73.444a1.45 1.45 0 01-.589-.148c-1.741-.79-2.986-2.002-3.698-3.6-.344-.774-.233-1.279.372-1.69.345-.234.984-.668.94-1.5-.052-.945-2.136-3.787-3.015-4.11a1.71 1.71 0 00-1.163-.003c-1.01.339-1.732.936-2.095 1.723-.35.762-.333 1.656.045 2.586C3.07 9.2 4.61 11.544 6.552 13.48c1.901 1.893 4.238 3.444 6.945 4.61.244.105.5.163.687.204.063.014.118.027.158.038a.265.265 0 00.068.009h.022c1.273 0 2.802-1.164 3.271-2.49.412-1.161-.34-1.735-.943-2.196zm-5.397-7.97c-.217.006-.671.018-.83.48-.076.216-.066.402.026.557.135.225.394.295.63.333.853.137 1.293.608 1.38 1.486.04.408.317.694.67.694a.66.66 0 00.08-.005c.424-.05.63-.363.612-.928.006-.59-.302-1.26-.828-1.794-.526-.535-1.161-.836-1.74-.822z" fill="#000" fill-opacity=".5"/></svg>
